X:1
T:Title
%%score { ( 1 3 ) | ( 2 4 ) }
L:1/8
M:4/4
K:G
V:1 treble nm="Grand Piano"
V:3 treble 
V:2 bass 
V:4 bass 
V:1
 z4 z2[Q:1/4=108] D>D | G2 G2 G2 B>c | d4 B2 B2 | c2 B>A G2 FG | [FA]6 D>D | G2 G2 G2 B>c | %6
 d4 B2 B2 | [EGc]2 [DGB]>[CEA] [B,DG]2 [A,DF]2 |[M:3/4] [B,DG]6 |[M:1/4] [DGB]>[DGc] | %10
[M:4/4] [Bd]3 c B2 B>B | [Ac]3 B [DFA]2 D>D | G2 A2 B2 ^c>c | [Fd]4 [Fd]2 B>c | d2 d2 d2 B>B | %15
 [Ec]2 [Ec]2 [Ec]2 [EB]>[EA] | [DG]2 [FA]>[Ac] [GB]2 A2 |[M:3/4] G6 |] %18
V:2
 z4 z2 [G,B,]>[G,B,] | [G,B,D]2 [G,B,D]2 [G,B,D]2[K:treble] [G,DG]>[G,CG] | %2
 [G,B,G]4 [G,DG]2 [G,DG]2 | [A,DF]2 [G,DG]>[K:bass][F,CD] [E,B,E]2 [E,^CE]2 | %4
 [D,D]6 [G,B,]>[G,B,] | [G,B,D]2 [G,B,D]2 [G,B,D]2 [G,DG]>[G,CG] | [G,DG]4 [G,DG]2 [G,DG]2 | %7
 C,2 C,>C, D,2 D,2 |[M:3/4] G,6 |[M:1/4] G,>G, |[M:4/4] z2 z[K:treble] A [G,DG]2 [G,DG]>[G,DG] | %11
 [D,D]4[K:bass] z4 | G,2 A,2 B,2[K:treble] [A,G]>[A,G] | [D,A,]4 [D,D]2[K:treble] [G,DG]>[G,CG] | %14
 [G,B,G]2 [G,B,G]2 [G,B,G]2 [G,D=F]>[G,DF] | [C,C]2 [C,C]2 [C,C]2 [C,A,]>[C,A,] | %16
 [D,B,]2 [D,D]>[D,D] [D,D]2 [D,CD]2 |[M:3/4] [G,B,D]6 |] %18
V:3
 x8 | x8 | x8 | x8 | x8 | x8 | x8 | x8 |[M:3/4] x6 |[M:1/4] x2 |[M:4/4] D4 z4 | x8 | x8 | x8 | x8 | %15
 x8 | x8 |[M:3/4] x6 |] %18
V:4
 x8 | x6[K:treble] x2 | x8 | x7/2[K:bass] x9/2 | x8 | x8 | x8 | x8 |[M:3/4] x6 |[M:1/4] x2 | %10
[M:4/4] G,4[K:treble] z4 | z2 z G[K:bass] D,2 D,>D, | x6[K:treble] x2 | x6[K:treble] x2 | x8 | x8 | %16
 x8 |[M:3/4] x6 |] %18

